assets/static/svgs/duotones/no-data.svg

<svg width="1em" height="1em"  viewBox="0 0 174 174" fill="none" xmlns="http://www.w3.org/2000/svg">
<symbol id="item"
width="1em"
height="1em"
viewBox="0 0 174 174"
fill="none"
>
 <path opacity="0.1" d="M124.149 95.932H61.6541C58.0871 95.932 55.2161 93.032 55.2161 89.494V44.602C55.2161 41.035 58.1161 38.164 61.6541 38.164H124.12C127.687 38.164 130.558 41.064 130.558 44.602V89.494C130.587 93.061 127.716 95.932 124.149 95.932Z" fill="currentColor"/> <path d="M115.855 75.5159H50.721C47.676 75.5159 45.182 73.0219 45.182 69.9769V58.464C45.182 52.809 49.764 48.227 55.419 48.227H111.186C116.841 48.227 121.423 52.809 121.423 58.464V69.9769C121.394 73.0219 118.929 75.5159 115.855 75.5159ZM55.419 50.431C50.982 50.431 47.386 54.027 47.386 58.464V69.9769C47.386 71.8039 48.894 73.3119 50.721 73.3119H115.855C117.682 73.3119 119.19 71.8039 119.19 69.9769V58.464C119.19 54.027 115.594 50.431 111.157 50.431H55.419Z" fill="currentColor"/> <path d="M56.405 68.179C55.796 68.179 55.303 67.686 55.303 67.077V56.666C55.303 56.057 55.796 55.564 56.405 55.564C57.014 55.564 57.507 56.057 57.507 56.666V67.077C57.507 67.686 57.014 68.179 56.405 68.179Z" fill="currentColor"/> <path d="M67.541 68.179C66.932 68.179 66.439 67.686 66.439 67.077V56.666C66.439 56.057 66.932 55.564 67.541 55.564C68.1499 55.564 68.6429 56.057 68.6429 56.666V67.077C68.6429 67.686 68.1499 68.179 67.541 68.179Z" fill="currentColor"/> <path d="M103.559 68.324C99.992 68.324 97.092 65.424 97.092 61.857C97.092 58.29 99.992 55.39 103.559 55.39C107.126 55.39 110.026 58.29 110.026 61.857C110.026 65.424 107.097 68.324 103.559 68.324ZM103.559 57.623C101.21 57.623 99.296 59.537 99.296 61.886C99.296 64.235 101.21 66.12 103.559 66.12C105.908 66.12 107.822 64.206 107.822 61.857C107.822 59.508 105.908 57.623 103.559 57.623Z" fill="currentColor"/> <path d="M99.035 106.829H55.419C50.0402 106.829 45.682 102.471 45.682 97.092V85.579C45.682 82.8101 47.9521 80.54 50.721 80.54H115.855C118.624 80.54 120.894 82.8101 120.894 85.579V93.67C120.894 94.0028 120.625 94.272 120.292 94.272C119.959 94.272 119.69 94.0028 119.69 93.67V85.579C119.69 83.4758 117.958 81.744 115.855 81.744H50.721C48.586 81.744 46.886 83.4787 46.886 85.579V97.092C46.886 101.805 50.7059 105.625 55.419 105.625H99.035C99.3679 105.625 99.637 105.894 99.637 106.227C99.637 106.56 99.3679 106.829 99.035 106.829Z" fill="var(--color--bulma-100)" stroke="var(--color--bulma-100)"/> <path d="M56.405 99.463C56.0721 99.463 55.803 99.1938 55.803 98.861V88.45C55.803 88.1171 56.0721 87.848 56.405 87.848C56.7378 87.848 57.007 88.1171 57.007 88.45V98.861C57.007 99.1938 56.7378 99.463 56.405 99.463Z" fill="var(--color--bulma-100)" stroke="var(--color--bulma-100)"/> <path d="M67.541 99.463C67.2081 99.463 66.939 99.1939 66.939 98.861V88.45C66.939 88.1171 67.2081 87.848 67.541 87.848C67.8738 87.848 68.1429 88.1171 68.1429 88.45V98.861C68.1429 99.1938 67.8738 99.463 67.541 99.463Z" fill="var(--color--bulma-100)" stroke="var(--color--bulma-100)"/> <path d="M108.322 93.67H108.322L108.322 93.6638C108.29 91.0491 106.19 88.907 103.559 88.907C100.934 88.907 98.796 91.0448 98.796 93.67C98.796 96.2951 100.934 98.433 103.559 98.433C106.184 98.433 108.322 96.2951 108.322 93.67ZM103.559 99.637C100.268 99.637 97.592 96.9608 97.592 93.67C97.592 90.3791 100.268 87.703 103.559 87.703C106.849 87.703 109.525 90.378 109.526 93.6679C109.498 96.9633 106.818 99.637 103.559 99.637Z" fill="var(--color--bulma-100)" stroke="var(--color--bulma-100)"/> <path d="M83.2879 132.204C78.6631 132.204 74.9139 128.455 74.9139 123.83C74.9139 119.205 78.6631 115.456 83.2879 115.456C87.9128 115.456 91.6619 119.205 91.6619 123.83C91.6619 128.455 87.9128 132.204 83.2879 132.204ZM83.2879 116.66C79.3288 116.66 76.1179 119.871 76.1179 123.83C76.1179 127.789 79.3288 131 83.2879 131C87.2471 131 90.4579 127.789 90.4579 123.83C90.4579 119.871 87.2471 116.66 83.2879 116.66Z" fill="var(--color--bulma-100)" stroke="var(--color--bulma-100)"/> <path d="M83.288 116.66C82.9552 116.66 82.686 116.391 82.686 116.058V106.227C82.686 105.894 82.9552 105.625 83.288 105.625C83.6209 105.625 83.89 105.894 83.89 106.227V116.058C83.89 116.391 83.6209 116.66 83.288 116.66Z" fill="var(--color--bulma-100)" stroke="var(--color--bulma-100)"/> <path d="M75.516 124.432H56.405C56.0721 124.432 55.803 124.163 55.803 123.83C55.803 123.497 56.0721 123.228 56.405 123.228H75.516C75.8489 123.228 76.118 123.497 76.118 123.83C76.118 124.163 75.8489 124.432 75.516 124.432Z" fill="var(--color--bulma-100)" stroke="var(--color--bulma-100)"/> <path d="M96.715 124.432H91.06C90.7271 124.432 90.458 124.163 90.458 123.83C90.458 123.497 90.7271 123.228 91.06 123.228H96.715C97.0478 123.228 97.317 123.497 97.317 123.83C97.317 124.163 97.0478 124.432 96.715 124.432Z" fill="var(--color--bulma-100)" stroke="var(--color--bulma-100)"/> <path d="M121.568 139.2C110.751 139.2 101.964 130.413 101.964 119.596C101.964 108.779 110.751 99.992 121.568 99.992C132.385 99.992 141.172 108.779 141.172 119.596C141.172 130.413 132.385 139.2 121.568 139.2ZM121.568 102.225C111.969 102.225 104.168 110.026 104.168 119.625C104.168 129.224 111.969 137.025 121.568 137.025C131.167 137.025 138.968 129.224 138.968 119.625C138.968 110.026 131.167 102.225 121.568 102.225Z" fill="currentColor"/> <path d="M113.448 128.818C113.158 128.818 112.897 128.702 112.665 128.499C112.23 128.064 112.23 127.368 112.665 126.933L128.876 110.722C129.311 110.287 130.007 110.287 130.442 110.722C130.877 111.157 130.877 111.853 130.442 112.288L114.231 128.499C114.028 128.731 113.738 128.818 113.448 128.818Z" fill="currentColor"/> <path d="M129.688 128.818C129.398 128.818 129.137 128.702 128.905 128.499L112.694 112.288C112.259 111.853 112.259 111.157 112.694 110.722C113.129 110.287 113.825 110.287 114.26 110.722L130.471 126.933C130.906 127.368 130.906 128.064 130.471 128.499C130.239 128.731 129.978 128.818 129.688 128.818Z" fill="currentColor"/> 
</symbol>
</svg>

<svg width="1em" height="1em"    viewBox="0 0 174 174" fill="none" xmlns="http://www.w3.org/2000/svg">
<symbol id="item"
width="1em"
height="1em"
viewBox="0 0 174 174"
fill="none"
>
<path opacity=".1" d="M124.149 95.932H61.654a6.442 6.442 0 0 1-6.438-6.438V44.602c0-3.567 2.9-6.438 6.438-6.438h62.466c3.567 0 6.438 2.9 6.438 6.438v44.892a6.38 6.38 0 0 1-6.409 6.438Z" fill="currentColor"/><path d="M115.855 75.516H50.721c-3.045 0-5.539-2.494-5.539-5.54V58.465c0-5.655 4.582-10.237 10.237-10.237h55.767c5.655 0 10.237 4.582 10.237 10.237v11.513c-.029 3.045-2.494 5.539-5.568 5.539ZM55.419 50.43a8.032 8.032 0 0 0-8.033 8.033v11.513a3.354 3.354 0 0 0 3.335 3.335h65.134a3.354 3.354 0 0 0 3.335-3.335V58.464a8.032 8.032 0 0 0-8.033-8.033H55.419Z" fill="currentColor"/><path d="M56.405 68.179a1.102 1.102 0 0 1-1.102-1.102V56.666a1.102 1.102 0 1 1 2.204 0v10.411c0 .609-.493 1.102-1.102 1.102ZM67.541 68.179a1.102 1.102 0 0 1-1.102-1.102V56.666a1.102 1.102 0 1 1 2.204 0v10.411c0 .609-.493 1.102-1.102 1.102ZM103.559 68.324a6.473 6.473 0 0 1-6.467-6.467c0-3.567 2.9-6.467 6.467-6.467 3.567 0 6.467 2.9 6.467 6.467 0 3.567-2.929 6.467-6.467 6.467Zm0-10.701a4.27 4.27 0 0 0-4.263 4.263c0 2.349 1.914 4.234 4.263 4.234a4.27 4.27 0 0 0 4.263-4.263c0-2.349-1.914-4.234-4.263-4.234Z" fill="currentColor"/><path d="M99.035 106.829H55.419a9.735 9.735 0 0 1-9.737-9.737V85.579c0-2.769 2.27-5.039 5.039-5.039h65.134c2.769 0 5.039 2.27 5.039 5.039v8.091a.601.601 0 1 1-1.204 0v-8.091c0-2.103-1.732-3.835-3.835-3.835H50.721a3.835 3.835 0 0 0-3.835 3.835v11.513a8.532 8.532 0 0 0 8.533 8.533h43.616a.601.601 0 1 1 0 1.204Z" fill="var(--color--bulma-100)" stroke="var(--color--bulma-100)"/><path d="M56.405 99.463a.602.602 0 0 1-.602-.602V88.45a.601.601 0 1 1 1.204 0v10.411c0 .333-.27.602-.602.602ZM67.541 99.463a.601.601 0 0 1-.602-.602V88.45a.601.601 0 1 1 1.204 0v10.411c0 .333-.27.602-.602.602ZM108.322 93.67v-.006c-.032-2.615-2.132-4.757-4.763-4.757a4.77 4.77 0 0 0-4.763 4.763 4.77 4.77 0 0 0 4.763 4.763 4.77 4.77 0 0 0 4.763-4.763Zm-4.763 5.967a5.973 5.973 0 0 1-5.967-5.967 5.973 5.973 0 0 1 5.967-5.967 5.973 5.973 0 0 1 5.967 5.965c-.028 3.295-2.708 5.969-5.967 5.969ZM83.288 132.204a8.374 8.374 0 1 1 0-16.748 8.374 8.374 0 0 1 0 16.748Zm0-15.544a7.171 7.171 0 0 0 0 14.34 7.171 7.171 0 0 0 0-14.34Z" fill="var(--color--bulma-100)" stroke="var(--color--bulma-100)"/><path d="M83.288 116.66a.601.601 0 0 1-.602-.602v-9.831a.601.601 0 1 1 1.204 0v9.831c0 .333-.27.602-.602.602ZM75.516 124.432H56.405a.601.601 0 1 1 0-1.204h19.111a.601.601 0 1 1 0 1.204ZM96.715 124.432H91.06a.601.601 0 1 1 0-1.204h5.655a.601.601 0 1 1 0 1.204Z" fill="var(--color--bulma-100)" stroke="var(--color--bulma-100)"/><path d="M121.568 139.2c-10.817 0-19.604-8.787-19.604-19.604 0-10.817 8.787-19.604 19.604-19.604 10.817 0 19.604 8.787 19.604 19.604 0 10.817-8.787 19.604-19.604 19.604Zm0-36.975c-9.599 0-17.4 7.801-17.4 17.4 0 9.599 7.801 17.4 17.4 17.4 9.599 0 17.4-7.801 17.4-17.4 0-9.599-7.801-17.4-17.4-17.4Z" fill="currentColor"/><path d="M113.448 128.818c-.29 0-.551-.116-.783-.319a1.103 1.103 0 0 1 0-1.566l16.211-16.211a1.103 1.103 0 0 1 1.566 0 1.103 1.103 0 0 1 0 1.566l-16.211 16.211c-.203.232-.493.319-.783.319Z" fill="currentColor"/><path d="M129.688 128.818c-.29 0-.551-.116-.783-.319l-16.211-16.211a1.103 1.103 0 0 1 0-1.566 1.103 1.103 0 0 1 1.566 0l16.211 16.211a1.103 1.103 0 0 1 0 1.566 1.05 1.05 0 0 1-.783.319Z" fill="currentColor"/>
</symbol>
</svg>
